assets/features/global-acquiring/icon_1.svg

<svg width="72" height="72" viewBox="0 0 72 72" fill="none" xmlns="http://www.w3.org/2000/svg">
<g clip-path="url(#clip0_1347_4131)">
<path d="M52 1H20C9.50659 1 1 9.50659 1 20V52C1 62.4934 9.50659 71 20 71H52C62.4934 71 71 62.4934 71 52V20C71 9.50659 62.4934 1 52 1Z" stroke="#9095A1" stroke-width="2"/>
<path d="M54 27.783V24.7176C54 23.2149 52.7788 22 51.2685 22H20.7315C19.2212 22 18 23.2149 18 24.7176V27.783C18 28.0467 18.2169 28.2626 18.482 28.2626H53.518C53.7831 28.2626 54 28.0467 54 27.783ZM53.518 30.8043H18.482C18.2169 30.8043 18 31.0202 18 31.2839V46.8824C18 48.3851 19.2212 49.6 20.7315 49.6H51.2685C52.7788 49.6 54 48.3851 54 46.8824V31.2839C54 31.0202 53.7831 30.8043 53.518 30.8043ZM35.992 40.8236L35.2569 44.972C35.2167 45.1998 35.0158 45.3677 34.7829 45.3677H33.1921C32.8909 45.3677 32.6659 45.0999 32.7181 44.8042L33.4532 40.6558C33.4934 40.428 33.6943 40.2601 33.9272 40.2601H35.518C35.8192 40.2641 36.0442 40.5319 35.992 40.8236ZM41.1377 40.8236L40.4026 44.972C40.3624 45.1998 40.1616 45.3677 39.9286 45.3677H38.3379C38.0366 45.3677 37.8116 45.0999 37.8639 44.8042L38.599 40.6558C38.6391 40.428 38.84 40.2601 39.073 40.2601H40.6637C40.965 40.2641 41.1899 40.5319 41.1377 40.8236ZM48.8503 40.8236L48.1152 44.972C48.075 45.1998 47.8741 45.3677 47.6412 45.3677H43.4836C43.1823 45.3677 42.9574 45.0999 43.0096 44.8042L43.7447 40.6558C43.7849 40.428 43.9857 40.2601 44.2187 40.2601H48.3763C48.6735 40.2641 48.9025 40.5319 48.8503 40.8236Z" stroke="#9095A1" stroke-width="2"/>
</g>
<defs>
<clipPath id="clip0_1347_4131">
<rect width="72" height="72" fill="white"/>
</clipPath>
</defs>
</svg>

<svg xmlns="http://www.w3.org/2000/svg" width="72" height="72" fill="none" viewBox="0 0 72 72"><g stroke="#9095a1" stroke-width="2" clip-path="url(#a)"><path d="M52 1H20C9.507 1 1 9.507 1 20v32c0 10.493 8.507 19 19 19h32c10.493 0 19-8.507 19-19V20C71 9.507 62.493 1 52 1Z"/><path d="M54 27.783v-3.065A2.72 2.72 0 0 0 51.269 22H20.732A2.72 2.72 0 0 0 18 24.718v3.065c0 .264.217.48.482.48h35.036a.48.48 0 0 0 .482-.48Zm-.482 3.021H18.482a.48.48 0 0 0-.482.48v15.598a2.72 2.72 0 0 0 2.732 2.718h30.537A2.72 2.72 0 0 0 54 46.882V31.284a.48.48 0 0 0-.482-.48Zm-17.526 10.02-.735 4.148a.48.48 0 0 1-.474.396h-1.59a.48.48 0 0 1-.475-.564l.735-4.148a.48.48 0 0 1 .474-.396h1.591a.482.482 0 0 1 .474.564Zm5.146 0-.735 4.148a.48.48 0 0 1-.474.396h-1.591a.48.48 0 0 1-.474-.564l.735-4.148a.48.48 0 0 1 .474-.396h1.59a.482.482 0 0 1 .475.564Zm7.712 0-.735 4.148a.48.48 0 0 1-.474.396h-4.157a.48.48 0 0 1-.474-.564l.735-4.148a.48.48 0 0 1 .474-.396h4.157a.484.484 0 0 1 .474.564Z"/></g><defs><clipPath id="a"><path fill="#fff" d="M0 0h72v72H0z"/></clipPath></defs></svg>
